X:1
T: The Marquis of Huntly's Snuff-mill
T: The Royal Gift
C:
R:Strathspey
Q: 128
K:F
M:4/4
L:1/16
|:D2|CF3 F3A G3F D4|CF3 F3A c2de f3c|d3c f3A BAGF D4|C3F A3F G4 F2D2|
CF3 F3A G3F D4|CF3 F3A c2de f3c|d3c f3A BAGF D4|C3F A3F G4 F2d2|
c3f f3a g3f d4|c3f f3a g3a fc3|d3f c3A BAGF D4|C3F A3F G4 F2d2|
c3f f3a g3f d4|c3f f3a g3a fc3|d3f c3A BAGF D2fg|a3F c3A G4 F2:|
